usr/share/bigbashview/bcc/apps/biglinux-settings/icons/left.svg

<?xml version="1.0" encoding="UTF-8" standalone="no"?>
<svg
   viewBox="0 0 512 512"
   version="1.1"
   id="svg4"
   sodipodi:docname="left.svg"
   inkscape:version="1.2.2 (b0a8486541, 2022-12-01)"
   xmlns:inkscape="http://www.inkscape.org/namespaces/inkscape"
   xmlns:sodipodi="http://sodipodi.sourceforge.net/DTD/sodipodi-0.dtd"
   xmlns="http://www.w3.org/2000/svg"
   xmlns:svg="http://www.w3.org/2000/svg">
  <defs
     id="defs8" />
  <sodipodi:namedview
     id="namedview6"
     pagecolor="#ffffff"
     bordercolor="#666666"
     borderopacity="1.0"
     inkscape:showpageshadow="2"
     inkscape:pageopacity="0.0"
     inkscape:pagecheckerboard="0"
     inkscape:deskcolor="#d1d1d1"
     showgrid="false"
     inkscape:zoom="1.3867188"
     inkscape:cx="255.63944"
     inkscape:cy="256"
     inkscape:window-width="1444"
     inkscape:window-height="870"
     inkscape:window-x="50"
     inkscape:window-y="30"
     inkscape:window-maximized="1"
     inkscape:current-layer="svg4" />
  <path
     fill="currentColor"
     d="m 448,32 c 35.3,0 64,28.65 64,64 v 320 c 0,35.3 -28.7,64 -64,64 H 64 C 28.65,480 0,451.3 0,416 V 96 C 0,60.65 28.65,32 64,32 Z M 96,96 c -17.67,0 -32,14.3 -32,32 0,17.7 14.33,32 32,32 h 320 c 17.7,0 32,-14.3 32,-32 0,-17.7 -14.3,-32 -32,-32 z"
     id="path2" />
</svg>

<svg viewBox="0 0 512 512"><path fill="currentColor" d="M448 32C483.3 32 512 60.65 512 96V416C512 451.3 483.3 480 448 480H64C28.65 480 0 451.3 0 416V96C0 60.65 28.65 32 64 32H448zM96 96C78.33 96 64 110.3 64 128C64 145.7 78.33 160 96 160H416C433.7 160 448 145.7 448 128C448 110.3 433.7 96 416 96H96z"></path></svg>
